X: 120
T: Pollonesse #???
M: 3/4
L: 1/16
R: Pollonesse
K: Bb
Q: 110
D4 D2dF D2dF|D2D2 F2F2 B4|A4 A2cB A2cB|A2F2 A2c2 B4|
|BdBd cece AcAc|BdBd cece AcAc| B2D2 E2D2 C2E2|F2FGFE D2C2|
|D4 D2dF D2dF|D2D2 F2F2 B4|A4A2cA A2cA|A2A2 A2A2 B4|
|BdBd cece AcAc|BdBd cece AcAc|d2D2 E2D2 C2E2|F3E E4D4:|

